Origami/16x16/apps/desktop-environment-gnome.svg

<svg width="16" height="16" version="1" xmlns="http://www.w3.org/2000/svg">
 <path d="M 12.083984,0 C 11.375262,0 10.750053,0.25627001 10.195312,0.59179688 9.6081995,0.21450198 8.9409237,-0.04896639 8.3398438,0.0234375 l -0.00195,0 C 7.3824789,0.13856473 6.4495404,0.77697871 6,1.5234375 5.9589054,1.5242896 5.9264934,1.5031438 5.8847656,1.5058594 5.6439329,1.521528 5.4355194,1.5609537 5.2441406,1.609375 4.5196804,1.7926803 3.7169523,2.3226525 3.3046875,3.1464844 3.0721076,3.1975961 2.8239281,3.1984727 2.6152344,3.296875 1.852531,3.6567139 1.0349196,4.630035 1,5.6191406 0.96508041,6.6082463 1.4005175,7.2311432 1.7929688,7.6777344 1.948561,7.8547911 2.1550955,7.9367586 2.3261719,8.0761719 2.2690045,8.2472101 2.1345134,8.3630904 2.0957031,8.5449219 1.6870003,10.458223 2.4048969,12.254438 3.5410156,13.613281 c 1.1361187,1.358843 2.8246778,2.402344 4.8359375,2.402344 2.0930429,0 4.1754559,-1.628677 4.5917969,-3.9375 C 13,11 12,8 14.501953,4.8496096 14.836932,4.1348656 15.159175,3.3706801 14.945312,2.25 14.838381,1.68966 14.491698,1.0061413 13.914062,0.57226562 13.336427,0.13838998 12.661769,0 12.083984,0 Z" style="fill:#569c3b"/>
 <path d="m12.083984 2c-2.221421 0-2.6383454 4-1.388672 4 1.249495 0 3.610185-4 1.388672-4zm-3.505859 0.0097656c-1.6940133 0.2041288-1.0992707 2.9391174-0.1972656 2.9902344 0.9016381 0.051118 1.8918906-3.1943627 0.1972656-2.9902344zm-2.5644531 1.4921875c-0.0865275 0.0056295-0.1801948 0.0218009-0.2792969 0.046875-1.5859268 0.4012765-0.2400108 2.056642 0.6484375 1.9453125 0.8335903-0.1042079 0.9287776-2.0766535-0.3691406-1.9921875zm-2.0859375 1.4980469c-0.1415634-0.0032399-0.2959886 0.0286138-0.4589844 0.1054688-1.3033781 0.6149259 0.4401924 2.101479 1.2070312 1.8710937 0.6709853-0.2016741 0.2428978-1.9537911-0.7480468-1.9765625zm4.921875 1c-1.9654387-0.0347861-4.3566766 0.8913504-4.7988282 2.9628906-0.4788664 2.2417644 1.7697466 5.0527344 4.3261719 5.0527344 1.2576294 0 2.3516579-0.78798 2.6230469-2.292969 0.207272-1.147638-2.2513452-0.689076-2.15625 0.070313 0.07765 0.620389-0.2454487 1.196931-0.6933594 1.207031-1.0744939-0.074113-1.069938-0.779101-1.1503906-1.3125-0.1095179-1.400656 4.46071-2.4004209 4.111328-4.5722656-0.127786-0.7943503-1.082455-1.0943624-2.2617186-1.1152344z" style="fill:#ffffff"/>
</svg>

<svg xmlns="http://www.w3.org/2000/svg" width="16" height="16" version="1">
 <path style="fill:#569c3b" d="M 12.083984,0 C 11.375262,0 10.750053,0.25627001 10.195312,0.59179688 9.6081995,0.21450198 8.9409237,-0.04896639 8.3398438,0.0234375 l -0.00195,0 C 7.3824789,0.13856473 6.4495404,0.77697871 6,1.5234375 5.9589054,1.5242896 5.9264934,1.5031438 5.8847656,1.5058594 5.6439329,1.521528 5.4355194,1.5609537 5.2441406,1.609375 4.5196804,1.7926803 3.7169523,2.3226525 3.3046875,3.1464844 3.0721076,3.1975961 2.8239281,3.1984727 2.6152344,3.296875 1.852531,3.6567139 1.0349196,4.630035 1,5.6191406 0.96508041,6.6082463 1.4005175,7.2311432 1.7929688,7.6777344 1.948561,7.8547911 2.1550955,7.9367586 2.3261719,8.0761719 2.2690045,8.2472101 2.1345134,8.3630904 2.0957031,8.5449219 1.6870003,10.458223 2.4048969,12.254438 3.5410156,13.613281 c 1.1361187,1.358843 2.8246778,2.402344 4.8359375,2.402344 2.0930429,0 4.1754559,-1.628677 4.5917969,-3.9375 C 13,11 12,8 14.501953,4.8496096 14.836932,4.1348656 15.159175,3.3706801 14.945312,2.25 14.838381,1.68966 14.491698,1.0061413 13.914062,0.57226562 13.336427,0.13838998 12.661769,0 12.083984,0 Z"/>
 <path style="fill:#ffffff" d="M 12.083984 2 C 9.862563 2 9.4456386 6 10.695312 6 C 11.944807 6 14.305497 2 12.083984 2 z M 8.578125 2.0097656 C 6.8841117 2.2138944 7.4788543 4.948883 8.3808594 5 C 9.2824975 5.051118 10.27275 1.8056373 8.578125 2.0097656 z M 6.0136719 3.5019531 C 5.9271444 3.5075826 5.8334771 3.523754 5.734375 3.5488281 C 4.1484482 3.9501046 5.4943642 5.6054701 6.3828125 5.4941406 C 7.2164028 5.3899327 7.3115901 3.4174871 6.0136719 3.5019531 z M 3.9277344 5 C 3.786171 4.9967601 3.6317458 5.0286138 3.46875 5.1054688 C 2.1653719 5.7203947 3.9089424 7.2069478 4.6757812 6.9765625 C 5.3467665 6.7748884 4.918679 5.0227714 3.9277344 5 z M 8.8496094 6 C 6.8841707 5.9652139 4.4929328 6.8913504 4.0507812 8.9628906 C 3.5719148 11.204655 5.8205278 14.015625 8.3769531 14.015625 C 9.6345825 14.015625 10.728611 13.227645 11 11.722656 C 11.207272 10.575018 8.7486548 11.03358 8.84375 11.792969 C 8.9214 12.413358 8.5983013 12.9899 8.1503906 13 C 7.0758967 12.925887 7.0804526 12.220899 7 11.6875 C 6.8904821 10.286844 11.46071 9.2870791 11.111328 7.1152344 C 10.983542 6.3208841 10.028873 6.020872 8.8496094 6 z"/>
</svg>
